X: 8204
T: Coolin, The
R: strathspey
M: 4/4
K: Fmajor
M:3/4
c>d|f>g a2 g>f|f2 A2 c>d|f>g a2 g>f|f4 fe|
dc fd cA|c2F2 Ac|d2 cA {A}G>F|F4||
AG|FG Ac df|c2A2 cd|f>g a2 g>f|f4 f>e|
dc fd cA|c2A2 cf|d2 cA {A}G>F|F4||

